assets/images/avatar/Avatar 20.svg

<svg fill="none" height="128" viewBox="0 0 128 128" width="128" xmlns="http://www.w3.org/2000/svg" xmlns:xlink="http://www.w3.org/1999/xlink"><mask id="a" height="124" maskUnits="userSpaceOnUse" width="112" x="8" y="2"><path clip-rule="evenodd" d="m62.1684 2.52488c19.1819-2.032089 40.3876 3.74949 51.3976 19.60852 10.494 15.1168 3.98 34.8599-1.356 52.4773-4.713 15.5595-12.2612 29.8213-26.1336 38.2733-15.9674 9.728-35.6335 17.803-52.4285 9.59-16.7336-8.183-22.2529-28.6761-24.46434-47.1907-1.89756-15.887 4.21314-30.6073 13.62794-43.5356 10.1239-13.9021 22.269-27.41256 39.3569-29.22282z" fill="#eff6f7" fill-rule="evenodd"/></mask><g mask="url(#a)"><path clip-rule="evenodd" d="m62.1684 2.52488c19.1819-2.032089 40.3876 3.74949 51.3976 19.60852 10.494 15.1168 3.98 34.8599-1.356 52.4773-4.713 15.5595-12.2612 29.8213-26.1336 38.2733-15.9674 9.728-35.6335 17.803-52.4285 9.59-16.7336-8.183-22.2529-28.6761-24.46434-47.1907-1.89756-15.887 4.21314-30.6073 13.62794-43.5356 10.1239-13.9021 22.269-27.41256 39.3569-29.22282z" fill="#eff6f7" fill-rule="evenodd"/><path d="m80.96 70.3361c0 8.4601-4.9768 15.5428 2.5569 22.5097 4.3642 4.032 18.5901 8.2652 23.5701 11.8852 7.315 5.328 11.112 10.119 12.218 21.904h-100.876c2.3466-9.78 6.2171-15.659 10.0144-19.2 7.0522-6.547 19.6145-10.7188 23.9818-15.6437 3.0963-3.4957 2.947-12.1661 1.5055-24.7802-1.2465-10.8922 27.0293-11.3768 27.0293 3.325z" fill="#e7baef"/><path d="m79.6191 86.3878c-.9875-4.6537 1.0483-9.5238 1.3104-14.9333-7.104.5699-18.3314 1.2191-26.3862 1.6853.0426.5181.0822 1.021.1188 1.5239 0 .1097 0 .2194.0244.3291.0305.4632.0609.9143.0853 1.3684 0 .1249 0 .2499.0213.3749.0244.4449.0458.8837.0641 1.3104v.2012c.0487 1.3206.0609 2.562.0365 3.7241v.5517c0 .2773-.0213.5516-.0365.8198 0 .2042-.0244.4084-.0366.6095-.0183.2469-.0366.4907-.0579.7284-.0214.2377-.0427.4206-.064.6095-.0213.189-.0488.4297-.0762.637-.0335.2529-.0762.4967-.1158.7375-.0396.2407-.0701.3992-.1067.5912-.064.3048-.128.6095-.2011.8869-.0366.1371-.0762.2621-.1128.3901-.0609.2103-.1249.4206-.192.6095-.0457.125-.0914.2499-.1402.3718-.0701.189-.1493.3688-.2285.5455-.0488.1098-.1006.2195-.1524.3231-.0914.1828-.192.3535-.3048.5211-.0487.0793-.0975.1676-.1493.2438-.1518.2313-.3188.4522-.4998.6614-.0976.1097-.2195.2163-.3261.3261 9.1032 4.9188 23.6099-.3566 27.5261-5.7479z" fill="#db9fe6"/><path d="m67.9132 15.1528c-.512.579-.8259 1.3623-1.6701 1.5055-.6589.0624-1.3209-.0802-1.8956-.4084-.5711-.3265-1.1735-.5951-1.7981-.8015-1.4416-.3688-2.8282.2834-3.7974 1.3105-1.1702 1.2434-1.5025 3.008-3.459 2.9806-2.0541-.0305-3.7303-1.789-5.5436.0975-1.0545 1.0971-1.28 2.7855-2.6271 3.6571-1.4689.9387-3.459.3048-4.803 1.4202-1.6793 1.3897-.9143 3.8034-1.9718 5.4553-1.4324 2.2704-4.6629 2.7428-4.2972 6.0952.1189 1.0758.6461 2.1333.4877 3.1969-.3048 1.9597-2.682 3.0141-3.1452 4.9402-.4633 1.9261 1.1581 3.7943.9143 5.7387-.1494 1.2007-.9752 2.1912-1.4659 3.2975-.2321.4942-.3329 1.0398-.2929 1.5842.04.5445.2196 1.0695.5215 1.5244.5577.8868 1.6944 1.4049 2.0022 2.4381.6766 2.2826-2.1851 4.2026.3688 6.0952.768.5699 2.1151.6979 2.6606 1.5238.6461.9844.064 2.6393.2742 3.7699.0725.4986.2448.9775.5066 1.4079.2619.4305.6078.8037 1.0172 1.0973.8107.5181 1.8286.5821 2.7429.8747 1.8926.6095 1.8286 2.7428 3.3707 3.5657 1.3105.6979 3.1939-.2408 4.288.7619.2562.2875.4914.5931.704.9142.8564 1.0698 2.4381 1.2861 3.7699.9905s2.5478-.9965 3.8278-1.4811c3.8186-1.4476 7.4362-1.4294 11.0872.4084 2.2857 1.152 4.8762 2.4137 7.296 1.6122 1.3319-.4389 2.56-1.4873 3.9619-1.2831 1.5421.2255 2.7429 1.9657 4.2667 1.6396 1.4172-.3048 1.9718-2.2034 3.3524-2.6606 1.1398-.3809 2.368.381 3.5596.2164.9661-.131 1.7646-.8685 2.2217-1.731.9143-1.7311.5394-3.069 2.6575-3.7791 1.3197-.4419 3.2063-.2864 4.0383-1.6304.695-1.1246.076-2.5509.628-3.7181.527-1.1185 1.856-1.2191 2.743-2.045 1.606-1.469.694-3.7181.432-5.6076-.067-.3444-.079-.6971-.036-1.0453.237-1.3471 1.645-2.1547 1.871-3.6572.171-1.1367-.405-2.2369-.671-3.3097-.457-1.856 1.524-3.2457 1.524-5.0225.022-2.2095-3.37-2.6148-3.166-4.9554.131-1.5238 1.46-3.0019.932-4.5714-.46-1.3623-2.215-1.92-2.742-3.2549-.503-1.2495.274-2.7002-.305-3.9101s-1.948-1.3744-3.0692-1.859c-1.8987-.8198-.835-3.7242-2.045-5.2023-1.0819-1.3257-2.9379-.4145-4.3062-.8747-1.3044-.4388-1.0454-.9996-1.4385-2.1821-.8777-2.624-2.9928-3.3524-5.5833-2.8038-.5912.125-1.2007.2804-1.792.1585-1.7737-.3566-2.1028-3.0476-4.2666-3.0842-1.6793-.0366-2.9501 1.8926-4.6293 1.5817-1.7372-.323-2.4778-2.563-4.4922-2.5112-1.024.0243-1.9688.7101-2.6545 1.4263z" fill="#2e2035"/><path d="m50.0359 56.3657c.5333 2.7856-.8503 8.256.8746 16.4572 1.8286 8.6095 7.7623 12.4586 12.9372 13.4613 8.0853 1.5695 17.0971-1.9748 22.528-15.2777 2.7763-6.7962 2.9501-15.1345 2.7642-17.3927-.2743-3.2945-.3048-6.4732-.9813-9.2983-1.4446-6.0953-5.0865-9.8347-9.7189-11.197-4.48-1.3165-9.5635-3.1055-18.9593.0305-4.7847 1.5817-11.8918 10.4228-9.4445 23.2167z" fill="#e7baef"/><path d="m79.4453 29.5832c-7.232-2.5081-18.758-2.3039-26.2674 3.5871-7.9421 6.2354-9.536 21.2541-4.3246 26.8526 2.4381-.8747 21.1901-7.1619 28.3978-18.4412 0 0 2.0053-.1127 5.888 4.8335 2.499 3.1848 3.7455 8.573 4.2301 12.5837.3047 2.3863-.1006 5.059-.1006 7.4605 0 1.1002.8899 6.3452 3.4255 4.4435 4.1113-12.736 3.197-34.5722-11.2488-41.3197z" fill="#2e2035"/><path d="m86.9059 63.7684c.0573-.2768.1681-.5398.3261-.7741.9143-1.3532 3.6572-4.7147 5.3334-2.5021 1.088 1.4385-.125 4.6629-1.853 7.5459-1.603 2.6758-4.6141 4.736-5.2023 4.8061-.512.0579 1.0118-7.2686 1.3958-9.0758z" fill="#e7baef"/><path d="m53.5833 61.6838c.0828-1.3956-.2254-2.7867-.8899-4.0167-.8564-1.5635-2.1882-3.0873-3.6937-1.8987-1.4141 1.1185-1.0545 4.547-.1097 7.7714.8746 2.9928 3.2731 5.7478 3.8217 5.9611.4023.1555.7284-5.0254.8716-7.8171z" fill="#e7baef"/><path d="m96.8717 99.712c-1.3197-.5607-2.6515-1.1276-3.962-1.6975-1.024 5.4645-1.6182 13.4465-1.7188 16.7955-4.4373 2.365-15.2869 4.142-25.9688 3.773-8.707-.305-18.7337-3.164-21.8941-5.126.5899-5.296.8839-10.62.8808-15.9484-.7833.4358-1.5787.8686-2.3893 1.3105l-1.9018 1.0331c-.454 9.4478-2.31 20.9858-3.3523 26.7428h60.6476c-.7101-10.398-1.5756-18.389-.3413-26.883z" fill="#b671c6"/></g></svg>

<svg width="128" height="128" viewBox="0 0 128 128" fill="none" xmlns="http://www.w3.org/2000/svg">
<mask id="mask0_457_1637" style="mask-type:alpha" maskUnits="userSpaceOnUse" x="8" y="2" width="112" height="124">
<path fill-rule="evenodd" clip-rule="evenodd" d="M62.1684 2.52488C81.3503 0.492791 102.556 6.27437 113.566 22.1334C124.06 37.2502 117.546 56.9933 112.21 74.6107C107.497 90.1702 99.9488 104.432 86.0764 112.884C70.109 122.612 50.4429 130.687 33.6479 122.474C16.9143 114.291 11.395 93.7979 9.18356 75.2833C7.286 59.3963 13.3967 44.676 22.8115 31.7477C32.9354 17.8456 45.0805 4.33514 62.1684 2.52488Z" fill="#EFF6F7"/>
</mask>
<g mask="url(#mask0_457_1637)">
<path fill-rule="evenodd" clip-rule="evenodd" d="M62.1684 2.52488C81.3503 0.492791 102.556 6.27437 113.566 22.1334C124.06 37.2502 117.546 56.9933 112.21 74.6107C107.497 90.1702 99.9488 104.432 86.0764 112.884C70.109 122.612 50.4429 130.687 33.6479 122.474C16.9143 114.291 11.395 93.7979 9.18356 75.2833C7.286 59.3963 13.3967 44.676 22.8115 31.7477C32.9354 17.8456 45.0805 4.33514 62.1684 2.52488Z" fill="#EFF6F7"/>
<path d="M80.96 70.3361C80.96 78.7962 75.9832 85.8789 83.5169 92.8458C87.8811 96.8778 102.107 101.111 107.087 104.731C114.402 110.059 118.199 114.85 119.305 126.635H18.429C20.7756 116.855 24.6461 110.976 28.4434 107.435C35.4956 100.888 48.0579 96.7162 52.4252 91.7913C55.5215 88.2956 55.3722 79.6252 53.9307 67.0111C52.6842 56.1189 80.96 55.6343 80.96 70.3361Z" fill="#E7BAEF"/>
<path d="M79.6191 86.3878C78.6316 81.7341 80.6674 76.864 80.9295 71.4545C73.8255 72.0244 62.5981 72.6736 54.5433 73.1398C54.5859 73.6579 54.6255 74.1608 54.6621 74.6637C54.6621 74.7734 54.6621 74.8831 54.6865 74.9928C54.717 75.456 54.7474 75.9071 54.7718 76.3612C54.7718 76.4861 54.7718 76.6111 54.7931 76.7361C54.8175 77.181 54.8389 77.6198 54.8572 78.0465C54.8572 78.1166 54.8572 78.1806 54.8572 78.2477C54.9059 79.5683 54.9181 80.8097 54.8937 81.9718C54.8937 82.1547 54.8937 82.3437 54.8937 82.5235C54.8937 82.8008 54.8724 83.0751 54.8572 83.3433C54.8572 83.5475 54.8328 83.7517 54.8206 83.9528C54.8023 84.1997 54.784 84.4435 54.7627 84.6812C54.7413 84.9189 54.72 85.1018 54.6987 85.2907C54.6774 85.4797 54.6499 85.7204 54.6225 85.9277C54.589 86.1806 54.5463 86.4244 54.5067 86.6652C54.4671 86.9059 54.4366 87.0644 54.4 87.2564C54.336 87.5612 54.272 87.8659 54.1989 88.1433C54.1623 88.2804 54.1227 88.4054 54.0861 88.5334C54.0252 88.7437 53.9612 88.954 53.8941 89.1429C53.8484 89.2679 53.8027 89.3928 53.7539 89.5147C53.6838 89.7037 53.6046 89.8835 53.5254 90.0602C53.4766 90.17 53.4248 90.2797 53.373 90.3833C53.2816 90.5661 53.181 90.7368 53.0682 90.9044C53.0195 90.9837 52.9707 91.072 52.9189 91.1482C52.7671 91.3795 52.6001 91.6004 52.4191 91.8096C52.3215 91.9193 52.1996 92.0259 52.093 92.1357C61.1962 97.0545 75.7029 91.7791 79.6191 86.3878Z" fill="#DB9FE6"/>
<path d="M67.9132 15.1528C67.4012 15.7318 67.0873 16.5151 66.2431 16.6583C65.5842 16.7207 64.9222 16.5781 64.3475 16.2499C63.7764 15.9234 63.174 15.6548 62.5494 15.4484C61.1078 15.0796 59.7212 15.7318 58.752 16.7589C57.5818 18.0023 57.2495 19.7669 55.293 19.7395C53.2389 19.709 51.5627 17.9505 49.7494 19.837C48.6949 20.9341 48.4694 22.6225 47.1223 23.4941C45.6534 24.4328 43.6633 23.7989 42.3193 24.9143C40.64 26.304 41.405 28.7177 40.3475 30.3696C38.9151 32.64 35.6846 33.1124 36.0503 36.4648C36.1692 37.5406 36.6964 38.5981 36.538 39.6617C36.2332 41.6214 33.856 42.6758 33.3928 44.6019C32.9295 46.528 34.5509 48.3962 34.3071 50.3406C34.1577 51.5413 33.3319 52.5318 32.8412 53.6381C32.6091 54.1323 32.5083 54.6779 32.5483 55.2223C32.5883 55.7668 32.7679 56.2918 33.0698 56.7467C33.6275 57.6335 34.7642 58.1516 35.072 59.1848C35.7486 61.4674 32.8869 63.3874 35.4408 65.28C36.2088 65.8499 37.5559 65.9779 38.1014 66.8038C38.7475 67.7882 38.1654 69.4431 38.3756 70.5737C38.4481 71.0723 38.6204 71.5512 38.8822 71.9816C39.1441 72.4121 39.49 72.7853 39.8994 73.0789C40.7101 73.597 41.728 73.661 42.6423 73.9536C44.5349 74.5631 44.4709 76.6964 46.013 77.5193C47.3235 78.2172 49.2069 77.2785 50.301 78.2812C50.5572 78.5687 50.7924 78.8743 51.005 79.1954C51.8614 80.2652 53.4431 80.4815 54.7749 80.1859C56.1067 79.8903 57.3227 79.1894 58.6027 78.7048C62.4213 77.2572 66.0389 77.2754 69.6899 79.1132C71.9756 80.2652 74.5661 81.5269 76.9859 80.7254C78.3178 80.2865 79.5459 79.2381 80.9478 79.4423C82.4899 79.6678 83.6907 81.408 85.2145 81.0819C86.6317 80.7771 87.1863 78.8785 88.5669 78.4213C89.7067 78.0404 90.9349 78.8023 92.1265 78.6377C93.0926 78.5067 93.8911 77.7692 94.3482 76.9067C95.2625 75.1756 94.8876 73.8377 97.0057 73.1276C98.3254 72.6857 100.212 72.8412 101.044 71.4972C101.739 70.3726 101.12 68.9463 101.672 67.7791C102.199 66.6606 103.528 66.56 104.415 65.7341C106.021 64.2651 105.109 62.016 104.847 60.1265C104.78 59.7821 104.768 59.4294 104.811 59.0812C105.048 57.7341 106.456 56.9265 106.682 55.424C106.853 54.2873 106.277 53.1871 106.011 52.1143C105.554 50.2583 107.535 48.8686 107.535 47.0918C107.557 44.8823 104.165 44.477 104.369 42.1364C104.5 40.6126 105.829 39.1345 105.301 37.565C104.841 36.2027 103.086 35.645 102.559 34.3101C102.056 33.0606 102.833 31.6099 102.254 30.4C101.675 29.1901 100.306 29.0256 99.1848 28.541C97.2861 27.7212 98.3498 24.8168 97.1398 23.3387C96.0579 22.013 94.2019 22.9242 92.8336 22.464C91.5292 22.0252 91.7882 21.4644 91.3951 20.2819C90.5174 17.6579 88.4023 16.9295 85.8118 17.4781C85.2206 17.6031 84.6111 17.7585 84.0198 17.6366C82.2461 17.28 81.917 14.589 79.7532 14.5524C78.0739 14.5158 76.8031 16.445 75.1239 16.1341C73.3867 15.8111 72.6461 13.5711 70.6317 13.6229C69.6077 13.6472 68.6629 14.333 67.9772 15.0492L67.9132 15.1528Z" fill="#2E2035"/>
<path d="M50.0359 56.3657C50.5692 59.1513 49.1856 64.6217 50.9105 72.8229C52.7391 81.4324 58.6728 85.2815 63.8477 86.2842C71.933 87.8537 80.9448 84.3094 86.3757 71.0065C89.152 64.2103 89.3258 55.872 89.1399 53.6138C88.8656 50.3193 88.8351 47.1406 88.1586 44.3155C86.714 38.2202 83.0721 34.4808 78.4397 33.1185C73.9597 31.802 68.8762 30.013 59.4804 33.149C54.6957 34.7307 47.5886 43.5718 50.0359 56.3657Z" fill="#E7BAEF"/>
<path d="M79.4453 29.5832C72.2133 27.0751 60.6873 27.2793 53.1779 33.1703C45.2358 39.4057 43.6419 54.4244 48.8533 60.0229C51.2914 59.1482 70.0434 52.861 77.2511 41.5817C77.2511 41.5817 79.2564 41.469 83.1391 46.4152C85.6381 49.6 86.8846 54.9882 87.3692 58.9989C87.6739 61.3852 87.2686 64.0579 87.2686 66.4594C87.2686 67.5596 88.1585 72.8046 90.6941 70.9029C94.8054 58.1669 93.8911 36.3307 79.4453 29.5832Z" fill="#2E2035"/>
<path d="M86.9059 63.7684C86.9632 63.4916 87.074 63.2286 87.232 62.9943C88.1463 61.6411 90.8892 58.2796 92.5654 60.4922C93.6534 61.9307 92.4404 65.1551 90.7124 68.0381C89.1094 70.7139 86.0983 72.7741 85.5101 72.8442C84.9981 72.9021 86.5219 65.5756 86.9059 63.7684Z" fill="#E7BAEF"/>
<path d="M53.5833 61.6838C53.6661 60.2882 53.3579 58.8971 52.6934 57.6671C51.837 56.1036 50.5052 54.5798 48.9997 55.7684C47.5856 56.8869 47.9452 60.3154 48.89 63.5398C49.7646 66.5326 52.1631 69.2876 52.7117 69.5009C53.114 69.6564 53.4401 64.4755 53.5833 61.6838Z" fill="#E7BAEF"/>
<path d="M96.8717 99.712C95.552 99.1513 94.2202 98.5844 92.9097 98.0145C91.8857 103.479 91.2915 111.461 91.1909 114.81C86.7536 117.175 75.904 118.952 65.2221 118.583C56.5151 118.278 46.4884 115.419 43.328 113.457C43.9179 108.161 44.2119 102.837 44.2088 97.5086C43.4255 97.9444 42.6301 98.3772 41.8195 98.8191L39.9177 99.8522C39.4637 109.3 37.6077 120.838 36.5654 126.595H97.213C96.5029 116.197 95.6374 108.206 96.8717 99.712Z" fill="#B671C6"/>
</g>
</svg>
